assets/img/components/datepicker.svg

<svg width="272" height="143" viewBox="0 0 272 143" fill="none" xmlns="http://www.w3.org/2000/svg">
<rect width="272" height="143" rx="8" fill="#EFF6FB"/>
<rect x="33.25" y="70.75" width="205.5" height="38.25" rx="4.5" fill="white" stroke="#D0D0CE"/>
<path d="M212.25 99.875C211.7 99.875 211.229 99.6792 210.838 99.2875C210.446 98.8958 210.25 98.425 210.25 97.875V83.875C210.25 83.325 210.446 82.8542 210.838 82.4625C211.229 82.0708 211.7 81.875 212.25 81.875H213.25V80.875C213.25 80.5917 213.346 80.3542 213.538 80.1625C213.729 79.9708 213.967 79.875 214.25 79.875C214.533 79.875 214.771 79.9708 214.963 80.1625C215.154 80.3542 215.25 80.5917 215.25 80.875V81.875H223.25V80.875C223.25 80.5917 223.346 80.3542 223.538 80.1625C223.729 79.9708 223.967 79.875 224.25 79.875C224.533 79.875 224.771 79.9708 224.963 80.1625C225.154 80.3542 225.25 80.5917 225.25 80.875V81.875H226.25C226.8 81.875 227.271 82.0708 227.663 82.4625C228.054 82.8542 228.25 83.325 228.25 83.875V97.875C228.25 98.425 228.054 98.8958 227.663 99.2875C227.271 99.6792 226.8 99.875 226.25 99.875H212.25ZM212.25 97.875H226.25V87.875H212.25V97.875ZM212.25 85.875H226.25V83.875H212.25V85.875ZM219.25 91.875C218.967 91.875 218.729 91.7792 218.538 91.5875C218.346 91.3958 218.25 91.1583 218.25 90.875C218.25 90.5917 218.346 90.3542 218.538 90.1625C218.729 89.9708 218.967 89.875 219.25 89.875C219.533 89.875 219.771 89.9708 219.963 90.1625C220.154 90.3542 220.25 90.5917 220.25 90.875C220.25 91.1583 220.154 91.3958 219.963 91.5875C219.771 91.7792 219.533 91.875 219.25 91.875ZM215.25 91.875C214.967 91.875 214.729 91.7792 214.538 91.5875C214.346 91.3958 214.25 91.1583 214.25 90.875C214.25 90.5917 214.346 90.3542 214.538 90.1625C214.729 89.9708 214.967 89.875 215.25 89.875C215.533 89.875 215.771 89.9708 215.963 90.1625C216.154 90.3542 216.25 90.5917 216.25 90.875C216.25 91.1583 216.154 91.3958 215.963 91.5875C215.771 91.7792 215.533 91.875 215.25 91.875ZM223.25 91.875C222.967 91.875 222.729 91.7792 222.538 91.5875C222.346 91.3958 222.25 91.1583 222.25 90.875C222.25 90.5917 222.346 90.3542 222.538 90.1625C222.729 89.9708 222.967 89.875 223.25 89.875C223.533 89.875 223.771 89.9708 223.963 90.1625C224.154 90.3542 224.25 90.5917 224.25 90.875C224.25 91.1583 224.154 91.3958 223.963 91.5875C223.771 91.7792 223.533 91.875 223.25 91.875ZM219.25 95.875C218.967 95.875 218.729 95.7792 218.538 95.5875C218.346 95.3958 218.25 95.1583 218.25 94.875C218.25 94.5917 218.346 94.3542 218.538 94.1625C218.729 93.9708 218.967 93.875 219.25 93.875C219.533 93.875 219.771 93.9708 219.963 94.1625C220.154 94.3542 220.25 94.5917 220.25 94.875C220.25 95.1583 220.154 95.3958 219.963 95.5875C219.771 95.7792 219.533 95.875 219.25 95.875ZM215.25 95.875C214.967 95.875 214.729 95.7792 214.538 95.5875C214.346 95.3958 214.25 95.1583 214.25 94.875C214.25 94.5917 214.346 94.3542 214.538 94.1625C214.729 93.9708 214.967 93.875 215.25 93.875C215.533 93.875 215.771 93.9708 215.963 94.1625C216.154 94.3542 216.25 94.5917 216.25 94.875C216.25 95.1583 216.154 95.3958 215.963 95.5875C215.771 95.7792 215.533 95.875 215.25 95.875ZM223.25 95.875C222.967 95.875 222.729 95.7792 222.538 95.5875C222.346 95.3958 222.25 95.1583 222.25 94.875C222.25 94.5917 222.346 94.3542 222.538 94.1625C222.729 93.9708 222.967 93.875 223.25 93.875C223.533 93.875 223.771 93.9708 223.963 94.1625C224.154 94.3542 224.25 94.5917 224.25 94.875C224.25 95.1583 224.154 95.3958 223.963 95.5875C223.771 95.7792 223.533 95.875 223.25 95.875Z" fill="#457AA5"/>
<path d="M38.1445 39.9912C38.1445 38.3344 39.4877 36.9912 41.1445 36.9912H102.445C104.102 36.9912 105.445 38.3344 105.445 39.9912C105.445 41.6481 104.102 42.9912 102.445 42.9912H41.1445C39.4877 42.9912 38.1445 41.6481 38.1445 39.9912Z" fill="#457AA5"/>
<path d="M38.1445 57C38.1445 55.6193 39.2638 54.5 40.6445 54.5H139.645C141.026 54.5 142.145 55.6193 142.145 57C142.145 58.3807 141.026 59.5 139.645 59.5H40.6445C39.2638 59.5 38.1445 58.3807 38.1445 57Z" fill="#BEC0C1"/>
<path d="M40.8828 98.1443C40.8828 97.5905 41.3317 97.1416 41.8855 97.1416H59.0489C59.6027 97.1416 60.0516 97.5905 60.0516 98.1443C60.0516 98.6981 59.6027 99.147 59.0489 99.147H41.8855C41.3317 99.147 40.8828 98.6981 40.8828 98.1443Z" fill="#BEC0C1"/>
<path d="M69.9561 98.1443C69.9561 97.5905 70.405 97.1416 70.9588 97.1416H88.1222C88.6759 97.1416 89.1249 97.5905 89.1249 98.1443C89.1249 98.6981 88.6759 99.147 88.1222 99.147H70.9588C70.405 99.147 69.9561 98.6981 69.9561 98.1443Z" fill="#BEC0C1"/>
<path d="M68.9705 86.7227C69.5094 86.8978 69.796 87.4845 69.603 88.0173L65.6903 98.8141C65.5062 99.3222 64.9524 99.5928 64.4384 99.4258C63.8995 99.2507 63.6128 98.664 63.8059 98.1312L67.7186 87.3344C67.9027 86.8263 68.4565 86.5557 68.9705 86.7227Z" fill="#BEC0C1"/>
<path d="M97.9363 86.7335C98.4752 86.9086 98.7619 87.4953 98.5688 88.028L94.6561 98.8248C94.472 99.3329 93.9182 99.6035 93.4042 99.4365C92.8653 99.2614 92.5787 98.6747 92.7717 98.142L96.6844 87.3451C96.8685 86.8371 97.4223 86.5665 97.9363 86.7335Z" fill="#BEC0C1"/>
<path d="M99.3145 98.1443C99.3145 97.5905 99.7634 97.1416 100.317 97.1416H134.997C135.551 97.1416 136 97.5905 136 98.1443C136 98.6981 135.551 99.147 134.997 99.147H100.317C99.7634 99.147 99.3145 98.6981 99.3145 98.1443Z" fill="#BEC0C1"/>
</svg>

<svg xmlns="http://www.w3.org/2000/svg" width="272" height="143" fill="none" viewBox="0 0 272 143"><rect width="272" height="143" fill="#eff6fb" rx="8"/><rect width="205.5" height="38.25" x="33.25" y="70.75" fill="#fff" stroke="#d0d0ce" rx="4.5"/><path fill="#457aa5" d="M212.25 99.875q-.825 0-1.412-.588a1.93 1.93 0 0 1-.588-1.412v-14q0-.825.588-1.412a1.92 1.92 0 0 1 1.412-.588h1v-1q0-.424.288-.713a.97.97 0 0 1 .712-.287.97.97 0 0 1 .713.287.97.97 0 0 1 .287.713v1h8v-1q0-.424.288-.713a.97.97 0 0 1 .712-.287.97.97 0 0 1 .713.287.97.97 0 0 1 .287.713v1h1q.825 0 1.413.588.587.587.587 1.412v14q0 .825-.587 1.412a1.93 1.93 0 0 1-1.413.588zm0-2h14v-10h-14zm0-12h14v-2h-14zm7 6a.97.97 0 0 1-.712-.287.97.97 0 0 1-.288-.713q0-.424.288-.713a.97.97 0 0 1 .712-.287.97.97 0 0 1 .713.287.97.97 0 0 1 .287.713.97.97 0 0 1-.287.713.97.97 0 0 1-.713.287m-4 0a.97.97 0 0 1-.712-.287.97.97 0 0 1-.288-.713q0-.424.288-.713a.97.97 0 0 1 .712-.287.97.97 0 0 1 .713.287.97.97 0 0 1 .287.713.97.97 0 0 1-.287.713.97.97 0 0 1-.713.287m8 0a.97.97 0 0 1-.712-.287.97.97 0 0 1-.288-.713q0-.424.288-.713a.97.97 0 0 1 .712-.287.97.97 0 0 1 .713.287.97.97 0 0 1 .287.713.97.97 0 0 1-.287.713.97.97 0 0 1-.713.287m-4 4a.97.97 0 0 1-.712-.287.97.97 0 0 1-.288-.713q0-.424.288-.713a.97.97 0 0 1 .712-.287.97.97 0 0 1 .713.287.97.97 0 0 1 .287.713.97.97 0 0 1-.287.713.97.97 0 0 1-.713.287m-4 0a.97.97 0 0 1-.712-.287.97.97 0 0 1-.288-.713q0-.424.288-.713a.97.97 0 0 1 .712-.287.97.97 0 0 1 .713.287.97.97 0 0 1 .287.713.97.97 0 0 1-.287.713.97.97 0 0 1-.713.287m8 0a.97.97 0 0 1-.712-.287.97.97 0 0 1-.288-.713q0-.424.288-.713a.97.97 0 0 1 .712-.287.97.97 0 0 1 .713.287.97.97 0 0 1 .287.713.97.97 0 0 1-.287.713.97.97 0 0 1-.713.287M38.145 39.991a3 3 0 0 1 3-3h61.3a3 3 0 1 1 0 6h-61.3a3 3 0 0 1-3-3"/><path fill="#bec0c1" d="M38.145 57a2.5 2.5 0 0 1 2.5-2.5h99a2.5 2.5 0 1 1 0 5h-99a2.5 2.5 0 0 1-2.5-2.5M40.883 98.144c0-.553.449-1.002 1.002-1.002H59.05a1.003 1.003 0 1 1 0 2.005H41.886a1.003 1.003 0 0 1-1.003-1.003M69.956 98.144c0-.553.449-1.002 1.003-1.002h17.163a1.003 1.003 0 0 1 0 2.005H70.96a1.003 1.003 0 0 1-1.003-1.003M68.97 86.723c.54.175.826.761.633 1.294L65.69 98.814a1.002 1.002 0 1 1-1.884-.683l3.913-10.797a1 1 0 0 1 1.252-.611M97.936 86.734c.54.175.826.761.633 1.294l-3.913 10.797a1.002 1.002 0 1 1-1.884-.683l3.912-10.797a1 1 0 0 1 1.252-.611M99.315 98.144c0-.553.448-1.002 1.002-1.002h34.68a1.003 1.003 0 1 1 0 2.005h-34.68a1.003 1.003 0 0 1-1.002-1.003"/></svg>
